images/56801.svg

<?xml version="1.0" encoding="UTF-8"?>
<svg xmlns="http://www.w3.org/2000/svg" xmlns:xlink="http://www.w3.org/1999/xlink" width="300pt" height="300pt" viewBox="0 0 300 300" version="1.1">
<defs>
<g>
<symbol overflow="visible" id="glyph0-0">
<path style="stroke:none;" d="M 0.453125 1.59375 L 0.453125 -6.34375 L 4.953125 -6.34375 L 4.953125 1.59375 Z M 0.953125 1.09375 L 4.453125 1.09375 L 4.453125 -5.84375 L 0.953125 -5.84375 Z M 0.953125 1.09375 "/>
</symbol>
<symbol overflow="visible" id="glyph0-1">
<path style="stroke:none;" d="M 3.546875 -5.953125 C 2.898438 -5.953125 2.382812 -5.710938 2 -5.234375 C 1.625 -4.753906 1.4375 -4.101562 1.4375 -3.28125 C 1.4375 -2.445312 1.625 -1.789062 2 -1.3125 C 2.382812 -0.832031 2.898438 -0.59375 3.546875 -0.59375 C 4.191406 -0.59375 4.703125 -0.832031 5.078125 -1.3125 C 5.453125 -1.789062 5.640625 -2.445312 5.640625 -3.28125 C 5.640625 -4.101562 5.453125 -4.753906 5.078125 -5.234375 C 4.703125 -5.710938 4.191406 -5.953125 3.546875 -5.953125 Z M 3.546875 -6.6875 C 4.460938 -6.6875 5.195312 -6.375 5.75 -5.75 C 6.300781 -5.132812 6.578125 -4.3125 6.578125 -3.28125 C 6.578125 -2.238281 6.300781 -1.410156 5.75 -0.796875 C 5.195312 -0.179688 4.460938 0.125 3.546875 0.125 C 2.617188 0.125 1.878906 -0.179688 1.328125 -0.796875 C 0.773438 -1.410156 0.5 -2.238281 0.5 -3.28125 C 0.5 -4.3125 0.773438 -5.132812 1.328125 -5.75 C 1.878906 -6.375 2.617188 -6.6875 3.546875 -6.6875 Z M 3.546875 -6.6875 "/>
</symbol>
<symbol overflow="visible" id="glyph0-2">
<path style="stroke:none;" d="M 0.890625 -6.5625 L 2.078125 -6.5625 L 4.984375 -1.078125 L 4.984375 -6.5625 L 5.84375 -6.5625 L 5.84375 0 L 4.65625 0 L 1.75 -5.484375 L 1.75 0 L 0.890625 0 Z M 0.890625 -6.5625 "/>
</symbol>
<symbol overflow="visible" id="glyph0-3">
<path style="stroke:none;" d="M 0.890625 -6.5625 L 1.765625 -6.5625 L 1.765625 -3.875 L 5 -3.875 L 5 -6.5625 L 5.890625 -6.5625 L 5.890625 0 L 5 0 L 5 -3.125 L 1.765625 -3.125 L 1.765625 0 L 0.890625 0 Z M 0.890625 -6.5625 "/>
</symbol>
</g>
</defs>
<g id="surface44601">
<rect x="0" y="0" width="300" height="300" style="fill:rgb(100%,100%,100%);fill-opacity:1;stroke:none;"/>
<path style="fill:none;stroke-width:1.2;stroke-linecap:butt;stroke-linejoin:miter;stroke:rgb(0%,0%,0%);stroke-opacity:1;stroke-miterlimit:10;" d="M 35.25 180.398438 L 36.011719 167.277344 "/>
<path style="fill:none;stroke-width:1.2;stroke-linecap:butt;stroke-linejoin:miter;stroke:rgb(0%,0%,0%);stroke-opacity:1;stroke-miterlimit:10;" d="M 38.414062 179.265625 L 39.019531 168.769531 "/>
<path style="fill:none;stroke-width:1.2;stroke-linecap:butt;stroke-linejoin:miter;stroke:rgb(0%,0%,0%);stroke-opacity:1;stroke-miterlimit:10;" d="M 46.230469 187.613281 L 35.25 180.398438 "/>
<path style="fill:none;stroke-width:1.2;stroke-linecap:butt;stroke-linejoin:miter;stroke:rgb(0%,0%,0%);stroke-opacity:1;stroke-miterlimit:10;" d="M 36.011719 167.277344 L 47.75 161.378906 "/>
<path style="fill:none;stroke-width:1.2;stroke-linecap:butt;stroke-linejoin:miter;stroke:rgb(0%,0%,0%);stroke-opacity:1;stroke-miterlimit:10;" d="M 47.75 161.378906 L 58.730469 168.59375 "/>
<path style="fill:none;stroke-width:1.2;stroke-linecap:butt;stroke-linejoin:miter;stroke:rgb(0%,0%,0%);stroke-opacity:1;stroke-miterlimit:10;" d="M 47.152344 164.683594 L 55.9375 170.457031 "/>
<path style="fill:none;stroke-width:1.2;stroke-linecap:butt;stroke-linejoin:miter;stroke:rgb(0%,0%,0%);stroke-opacity:1;stroke-miterlimit:10;" d="M 58.730469 168.59375 L 57.972656 181.714844 "/>
<path style="fill:none;stroke-width:1.2;stroke-linecap:butt;stroke-linejoin:miter;stroke:rgb(0%,0%,0%);stroke-opacity:1;stroke-miterlimit:10;" d="M 58.730469 168.59375 L 70.472656 162.691406 "/>
<path style="fill:none;stroke-width:1.2;stroke-linecap:butt;stroke-linejoin:miter;stroke:rgb(0%,0%,0%);stroke-opacity:1;stroke-miterlimit:10;" d="M 57.972656 181.714844 L 46.230469 187.613281 "/>
<path style="fill:none;stroke-width:1.2;stroke-linecap:butt;stroke-linejoin:miter;stroke:rgb(0%,0%,0%);stroke-opacity:1;stroke-miterlimit:10;" d="M 55.410156 179.539062 L 46.015625 184.261719 "/>
<path style="fill:none;stroke-width:1.2;stroke-linecap:butt;stroke-linejoin:miter;stroke:rgb(0%,0%,0%);stroke-opacity:1;stroke-miterlimit:10;" d="M 70.472656 162.691406 L 81.453125 169.910156 "/>
<path style="fill:none;stroke-width:1.2;stroke-linecap:butt;stroke-linejoin:miter;stroke:rgb(0%,0%,0%);stroke-opacity:1;stroke-miterlimit:10;" d="M 81.453125 169.910156 L 93.195312 164.007812 "/>
<path style="fill:none;stroke-width:1.2;stroke-linecap:butt;stroke-linejoin:miter;stroke:rgb(0%,0%,0%);stroke-opacity:1;stroke-miterlimit:10;" d="M 93.195312 164.007812 L 104.175781 171.226562 "/>
<path style="fill:none;stroke-width:1.2;stroke-linecap:butt;stroke-linejoin:miter;stroke:rgb(0%,0%,0%);stroke-opacity:1;stroke-miterlimit:10;" d="M 104.175781 171.226562 L 110.046875 168.277344 "/>
<path style="fill:none;stroke-width:1.2;stroke-linecap:butt;stroke-linejoin:miter;stroke:rgb(100%,0%,0%);stroke-opacity:1;stroke-miterlimit:10;" d="M 110.046875 168.277344 L 115.917969 165.324219 "/>
<path style="fill:none;stroke-width:1.2;stroke-linecap:butt;stroke-linejoin:miter;stroke:rgb(100%,0%,0%);stroke-opacity:1;stroke-miterlimit:10;" d="M 115.917969 165.324219 L 121.40625 168.933594 "/>
<path style="fill:none;stroke-width:1.2;stroke-linecap:butt;stroke-linejoin:miter;stroke:rgb(0%,0%,0%);stroke-opacity:1;stroke-miterlimit:10;" d="M 121.40625 168.933594 L 126.898438 172.542969 "/>
<path style=" stroke:none;fill-rule:nonzero;fill:rgb(100%,100%,100%);fill-opacity:1;" d="M 111.917969 159.824219 L 119.917969 159.824219 L 119.917969 170.824219 L 111.917969 170.824219 Z M 111.917969 159.824219 "/>
<g style="fill:rgb(100%,0%,0%);fill-opacity:1;">
  <use xlink:href="#glyph0-1" x="111.917969" y="168.487305"/>
</g>
<path style="fill:none;stroke-width:1.2;stroke-linecap:butt;stroke-linejoin:miter;stroke:rgb(0%,0%,0%);stroke-opacity:1;stroke-miterlimit:10;" d="M 126.898438 172.542969 L 138.640625 166.640625 "/>
<path style="fill:none;stroke-width:1.2;stroke-linecap:butt;stroke-linejoin:miter;stroke:rgb(0%,0%,0%);stroke-opacity:1;stroke-miterlimit:10;" d="M 138.640625 166.640625 L 149.621094 173.859375 "/>
<path style="fill:none;stroke-width:1.2;stroke-linecap:butt;stroke-linejoin:miter;stroke:rgb(0%,0%,0%);stroke-opacity:1;stroke-miterlimit:10;" d="M 149.621094 173.859375 L 161.359375 167.957031 "/>
<path style="fill:none;stroke-width:1.2;stroke-linecap:butt;stroke-linejoin:miter;stroke:rgb(0%,0%,0%);stroke-opacity:1;stroke-miterlimit:10;" d="M 161.359375 167.957031 L 172.34375 175.175781 "/>
<path style="fill:none;stroke-width:1.2;stroke-linecap:butt;stroke-linejoin:miter;stroke:rgb(0%,0%,0%);stroke-opacity:1;stroke-miterlimit:10;" d="M 172.34375 175.175781 L 184.082031 169.273438 "/>
<path style="fill:none;stroke-width:1.2;stroke-linecap:butt;stroke-linejoin:miter;stroke:rgb(0%,0%,0%);stroke-opacity:1;stroke-miterlimit:10;" d="M 184.082031 169.273438 L 189.574219 172.882812 "/>
<path style="fill:none;stroke-width:1.2;stroke-linecap:butt;stroke-linejoin:miter;stroke:rgb(0%,0%,100%);stroke-opacity:1;stroke-miterlimit:10;" d="M 189.574219 172.882812 L 195.0625 176.492188 "/>
<path style="fill:none;stroke-width:1.2;stroke-linecap:butt;stroke-linejoin:miter;stroke:rgb(0%,0%,100%);stroke-opacity:1;stroke-miterlimit:10;" d="M 195.0625 176.492188 L 200.933594 173.542969 "/>
<path style="fill:none;stroke-width:1.2;stroke-linecap:butt;stroke-linejoin:miter;stroke:rgb(0%,0%,0%);stroke-opacity:1;stroke-miterlimit:10;" d="M 200.933594 173.542969 L 206.804688 170.589844 "/>
<path style=" stroke:none;fill-rule:nonzero;fill:rgb(100%,100%,100%);fill-opacity:1;" d="M 188.0625 170.992188 L 202.0625 170.992188 L 202.0625 181.992188 L 188.0625 181.992188 Z M 188.0625 170.992188 "/>
<g style="fill:rgb(0%,0%,100%);fill-opacity:1;">
  <use xlink:href="#glyph0-2" x="188.0625" y="179.655273"/>
  <use xlink:href="#glyph0-3" x="195.040039" y="179.655273"/>
</g>
<path style="fill:none;stroke-width:1.2;stroke-linecap:butt;stroke-linejoin:miter;stroke:rgb(0%,0%,0%);stroke-opacity:1;stroke-miterlimit:10;" d="M 206.804688 170.589844 L 217.785156 177.808594 "/>
<path style="fill:none;stroke-width:1.2;stroke-linecap:butt;stroke-linejoin:miter;stroke:rgb(0%,0%,0%);stroke-opacity:1;stroke-miterlimit:10;" d="M 217.785156 177.808594 L 229.527344 171.90625 "/>
<path style="fill:none;stroke-width:1.2;stroke-linecap:butt;stroke-linejoin:miter;stroke:rgb(0%,0%,0%);stroke-opacity:1;stroke-miterlimit:10;" d="M 217.785156 177.808594 L 217.40625 184.367188 "/>
<path style="fill:none;stroke-width:1.2;stroke-linecap:butt;stroke-linejoin:miter;stroke:rgb(100%,0%,0%);stroke-opacity:1;stroke-miterlimit:10;" d="M 217.40625 184.367188 L 217.027344 190.925781 "/>
<path style="fill:none;stroke-width:1.2;stroke-linecap:butt;stroke-linejoin:miter;stroke:rgb(0%,0%,0%);stroke-opacity:1;stroke-miterlimit:10;" d="M 229.527344 171.90625 L 240.507812 179.125 "/>
<path style="fill:none;stroke-width:1.2;stroke-linecap:butt;stroke-linejoin:miter;stroke:rgb(0%,0%,0%);stroke-opacity:1;stroke-miterlimit:10;" d="M 232.324219 170.046875 L 241.109375 175.820312 "/>
<path style="fill:none;stroke-width:1.2;stroke-linecap:butt;stroke-linejoin:miter;stroke:rgb(0%,0%,0%);stroke-opacity:1;stroke-miterlimit:10;" d="M 230.285156 158.789062 L 229.527344 171.90625 "/>
<path style="fill:none;stroke-width:1.2;stroke-linecap:butt;stroke-linejoin:miter;stroke:rgb(0%,0%,0%);stroke-opacity:1;stroke-miterlimit:10;" d="M 240.507812 179.125 L 252.25 173.222656 "/>
<path style="fill:none;stroke-width:1.2;stroke-linecap:butt;stroke-linejoin:miter;stroke:rgb(0%,0%,0%);stroke-opacity:1;stroke-miterlimit:10;" d="M 252.25 173.222656 L 253.007812 160.105469 "/>
<path style="fill:none;stroke-width:1.2;stroke-linecap:butt;stroke-linejoin:miter;stroke:rgb(0%,0%,0%);stroke-opacity:1;stroke-miterlimit:10;" d="M 249.238281 171.734375 L 249.847656 161.238281 "/>
<path style="fill:none;stroke-width:1.2;stroke-linecap:butt;stroke-linejoin:miter;stroke:rgb(0%,0%,0%);stroke-opacity:1;stroke-miterlimit:10;" d="M 252.25 173.222656 L 263.230469 180.441406 "/>
<path style="fill:none;stroke-width:1.2;stroke-linecap:butt;stroke-linejoin:miter;stroke:rgb(0%,0%,0%);stroke-opacity:1;stroke-miterlimit:10;" d="M 253.007812 160.105469 L 242.027344 152.886719 "/>
<path style="fill:none;stroke-width:1.2;stroke-linecap:butt;stroke-linejoin:miter;stroke:rgb(0%,0%,0%);stroke-opacity:1;stroke-miterlimit:10;" d="M 253.007812 160.105469 L 258.878906 157.152344 "/>
<path style="fill:none;stroke-width:1.2;stroke-linecap:butt;stroke-linejoin:miter;stroke:rgb(100%,0%,0%);stroke-opacity:1;stroke-miterlimit:10;" d="M 258.878906 157.152344 L 264.75 154.203125 "/>
<path style="fill:none;stroke-width:1.2;stroke-linecap:butt;stroke-linejoin:miter;stroke:rgb(0%,0%,0%);stroke-opacity:1;stroke-miterlimit:10;" d="M 242.027344 152.886719 L 230.285156 158.789062 "/>
<path style="fill:none;stroke-width:1.2;stroke-linecap:butt;stroke-linejoin:miter;stroke:rgb(0%,0%,0%);stroke-opacity:1;stroke-miterlimit:10;" d="M 242.242188 156.238281 L 232.847656 160.960938 "/>
<path style=" stroke:none;fill-rule:nonzero;fill:rgb(100%,100%,100%);fill-opacity:1;" d="M 257.75 148.703125 L 272.75 148.703125 L 272.75 159.703125 L 257.75 159.703125 Z M 257.75 148.703125 "/>
<g style="fill:rgb(100%,0%,0%);fill-opacity:1;">
  <use xlink:href="#glyph0-1" x="257.75" y="157.366211"/>
  <use xlink:href="#glyph0-3" x="265.091797" y="157.366211"/>
</g>
<path style="fill:none;stroke-width:1.2;stroke-linecap:butt;stroke-linejoin:miter;stroke:rgb(0%,0%,0%);stroke-opacity:1;stroke-miterlimit:10;" d="M 263.230469 180.441406 L 262.851562 187 "/>
<path style="fill:none;stroke-width:1.2;stroke-linecap:butt;stroke-linejoin:miter;stroke:rgb(100%,0%,0%);stroke-opacity:1;stroke-miterlimit:10;" d="M 262.851562 187 L 262.46875 193.558594 "/>
<path style=" stroke:none;fill-rule:nonzero;fill:rgb(100%,100%,100%);fill-opacity:1;" d="M 255.46875 188.058594 L 270.46875 188.058594 L 270.46875 199.058594 L 255.46875 199.058594 Z M 255.46875 188.058594 "/>
<g style="fill:rgb(100%,0%,0%);fill-opacity:1;">
  <use xlink:href="#glyph0-1" x="255.46875" y="196.72168"/>
  <use xlink:href="#glyph0-3" x="262.810547" y="196.72168"/>
</g>
<path style=" stroke:none;fill-rule:nonzero;fill:rgb(100%,100%,100%);fill-opacity:1;" d="M 210.027344 185.425781 L 225.027344 185.425781 L 225.027344 196.425781 L 210.027344 196.425781 Z M 210.027344 185.425781 "/>
<g style="fill:rgb(100%,0%,0%);fill-opacity:1;">
  <use xlink:href="#glyph0-1" x="210.027344" y="194.088867"/>
  <use xlink:href="#glyph0-3" x="217.369141" y="194.088867"/>
</g>
<path style="fill:none;stroke-width:1.2;stroke-linecap:butt;stroke-linejoin:miter;stroke:rgb(0%,0%,0%);stroke-opacity:1;stroke-miterlimit:10;" d="M 124.746094 127.828125 L 128.601562 115.265625 "/>
<path style="fill:none;stroke-width:1.2;stroke-linecap:butt;stroke-linejoin:miter;stroke:rgb(0%,0%,0%);stroke-opacity:1;stroke-miterlimit:10;" d="M 128.085938 127.480469 L 131.171875 117.429688 "/>
<path style="fill:none;stroke-width:1.2;stroke-linecap:butt;stroke-linejoin:miter;stroke:rgb(0%,0%,0%);stroke-opacity:1;stroke-miterlimit:10;" d="M 133.695312 137.449219 L 124.746094 127.828125 "/>
<path style="fill:none;stroke-width:1.2;stroke-linecap:butt;stroke-linejoin:miter;stroke:rgb(0%,0%,0%);stroke-opacity:1;stroke-miterlimit:10;" d="M 128.601562 115.265625 L 141.410156 112.324219 "/>
<path style="fill:none;stroke-width:1.2;stroke-linecap:butt;stroke-linejoin:miter;stroke:rgb(0%,0%,0%);stroke-opacity:1;stroke-miterlimit:10;" d="M 141.410156 112.324219 L 150.359375 121.945312 "/>
<path style="fill:none;stroke-width:1.2;stroke-linecap:butt;stroke-linejoin:miter;stroke:rgb(0%,0%,0%);stroke-opacity:1;stroke-miterlimit:10;" d="M 140.039062 115.390625 L 147.203125 123.089844 "/>
<path style="fill:none;stroke-width:1.2;stroke-linecap:butt;stroke-linejoin:miter;stroke:rgb(0%,0%,0%);stroke-opacity:1;stroke-miterlimit:10;" d="M 150.359375 121.945312 L 146.503906 134.507812 "/>
<path style="fill:none;stroke-width:1.2;stroke-linecap:butt;stroke-linejoin:miter;stroke:rgb(0%,0%,0%);stroke-opacity:1;stroke-miterlimit:10;" d="M 163.167969 119.003906 L 150.359375 121.945312 "/>
<path style="fill:none;stroke-width:1.2;stroke-linecap:butt;stroke-linejoin:miter;stroke:rgb(0%,0%,0%);stroke-opacity:1;stroke-miterlimit:10;" d="M 146.503906 134.507812 L 133.695312 137.449219 "/>
<path style="fill:none;stroke-width:1.2;stroke-linecap:butt;stroke-linejoin:miter;stroke:rgb(0%,0%,0%);stroke-opacity:1;stroke-miterlimit:10;" d="M 144.53125 131.789062 L 134.285156 134.140625 "/>
<path style="fill:none;stroke-width:1.2;stroke-linecap:butt;stroke-linejoin:miter;stroke:rgb(0%,0%,0%);stroke-opacity:1;stroke-miterlimit:10;" d="M 146.503906 134.507812 L 155.457031 144.128906 "/>
<path style="fill:none;stroke-width:1.2;stroke-linecap:butt;stroke-linejoin:miter;stroke:rgb(0%,0%,0%);stroke-opacity:1;stroke-miterlimit:10;" d="M 155.457031 144.128906 L 168.261719 141.183594 "/>
<path style="fill:none;stroke-width:1.2;stroke-linecap:butt;stroke-linejoin:miter;stroke:rgb(0%,0%,0%);stroke-opacity:1;stroke-miterlimit:10;" d="M 156.042969 140.820312 L 166.289062 138.464844 "/>
<path style="fill:none;stroke-width:1.2;stroke-linecap:butt;stroke-linejoin:miter;stroke:rgb(0%,0%,0%);stroke-opacity:1;stroke-miterlimit:10;" d="M 168.261719 141.183594 L 172.117188 128.625 "/>
<path style="fill:none;stroke-width:1.2;stroke-linecap:butt;stroke-linejoin:miter;stroke:rgb(0%,0%,0%);stroke-opacity:1;stroke-miterlimit:10;" d="M 172.117188 128.625 L 163.167969 119.003906 "/>
<path style="fill:none;stroke-width:1.2;stroke-linecap:butt;stroke-linejoin:miter;stroke:rgb(0%,0%,0%);stroke-opacity:1;stroke-miterlimit:10;" d="M 168.960938 129.765625 L 161.796875 122.070312 "/>
<path style="fill:none;stroke-width:1.2;stroke-linecap:butt;stroke-linejoin:miter;stroke:rgb(0%,0%,0%);stroke-opacity:1;stroke-miterlimit:10;" d="M 172.117188 128.625 L 184.925781 125.679688 "/>
<path style="fill:none;stroke-width:1.2;stroke-linecap:butt;stroke-linejoin:miter;stroke:rgb(0%,0%,0%);stroke-opacity:1;stroke-miterlimit:10;" d="M 163.167969 119.003906 L 165.09375 112.722656 "/>
<path style="fill:none;stroke-width:1.2;stroke-linecap:butt;stroke-linejoin:miter;stroke:rgb(100%,0%,0%);stroke-opacity:1;stroke-miterlimit:10;" d="M 165.09375 112.722656 L 167.023438 106.441406 "/>
<path style=" stroke:none;fill-rule:nonzero;fill:rgb(100%,100%,100%);fill-opacity:1;" d="M 160.023438 100.941406 L 175.023438 100.941406 L 175.023438 111.941406 L 160.023438 111.941406 Z M 160.023438 100.941406 "/>
<g style="fill:rgb(100%,0%,0%);fill-opacity:1;">
  <use xlink:href="#glyph0-1" x="160.023438" y="109.604492"/>
  <use xlink:href="#glyph0-3" x="167.365234" y="109.604492"/>
</g>
<path style="fill:none;stroke-width:1.2;stroke-linecap:butt;stroke-linejoin:miter;stroke:rgb(0%,0%,0%);stroke-opacity:1;stroke-miterlimit:10;" d="M 186.402344 126.136719 L 188.332031 119.855469 "/>
<path style="fill:none;stroke-width:1.2;stroke-linecap:butt;stroke-linejoin:miter;stroke:rgb(100%,0%,0%);stroke-opacity:1;stroke-miterlimit:10;" d="M 188.332031 119.855469 L 190.257812 113.574219 "/>
<path style="fill:none;stroke-width:1.2;stroke-linecap:butt;stroke-linejoin:miter;stroke:rgb(0%,0%,0%);stroke-opacity:1;stroke-miterlimit:10;" d="M 183.449219 125.226562 L 185.375 118.945312 "/>
<path style="fill:none;stroke-width:1.2;stroke-linecap:butt;stroke-linejoin:miter;stroke:rgb(100%,0%,0%);stroke-opacity:1;stroke-miterlimit:10;" d="M 185.375 118.945312 L 187.304688 112.664062 "/>
<path style="fill:none;stroke-width:1.2;stroke-linecap:butt;stroke-linejoin:miter;stroke:rgb(0%,0%,0%);stroke-opacity:1;stroke-miterlimit:10;" d="M 184.925781 125.679688 L 189.402344 130.492188 "/>
<path style="fill:none;stroke-width:1.2;stroke-linecap:butt;stroke-linejoin:miter;stroke:rgb(100%,0%,0%);stroke-opacity:1;stroke-miterlimit:10;" d="M 189.402344 130.492188 L 193.875 135.300781 "/>
<path style=" stroke:none;fill-rule:nonzero;fill:rgb(100%,100%,100%);fill-opacity:1;" d="M 184.78125 107.621094 L 192.78125 107.621094 L 192.78125 118.621094 L 184.78125 118.621094 Z M 184.78125 107.621094 "/>
<g style="fill:rgb(100%,0%,0%);fill-opacity:1;">
  <use xlink:href="#glyph0-1" x="184.78125" y="116.28418"/>
</g>
<path style=" stroke:none;fill-rule:nonzero;fill:rgb(100%,100%,100%);fill-opacity:1;" d="M 186.875 129.800781 L 201.875 129.800781 L 201.875 140.800781 L 186.875 140.800781 Z M 186.875 129.800781 "/>
<g style="fill:rgb(100%,0%,0%);fill-opacity:1;">
  <use xlink:href="#glyph0-1" x="186.875" y="138.463867"/>
  <use xlink:href="#glyph0-3" x="194.216797" y="138.463867"/>
</g>
</g>
</svg>

<svg xmlns="http://www.w3.org/2000/svg" xmlns:xlink="http://www.w3.org/1999/xlink" width="300pt" height="300pt" viewBox="0 0 300 300"><defs><symbol overflow="visible"><path d="M.453 1.594v-7.938h4.5v7.938zm.5-.5h3.5v-6.938h-3.5zm0 0"/></symbol><symbol overflow="visible" id="a"><path d="M3.547-5.953c-.65 0-1.164.242-1.547.72-.375.48-.563 1.13-.563 1.952 0 .835.188 1.49.563 1.967.383.48.898.72 1.547.72.644 0 1.156-.24 1.53-.72.376-.476.564-1.132.564-1.968 0-.822-.187-1.474-.562-1.954-.375-.477-.887-.72-1.53-.72zm0-.734c.914 0 1.648.312 2.203.937.55.617.828 1.438.828 2.47 0 1.042-.277 1.87-.828 2.483-.555.617-1.29.922-2.203.922-.93 0-1.668-.305-2.22-.922C.774-1.41.5-2.237.5-3.28c0-1.033.273-1.853.828-2.47.55-.625 1.29-.938 2.22-.938zm0 0"/></symbol><symbol overflow="visible" id="b"><path d="M.89-6.563H2.08l2.906 5.485v-5.484h.86V0H4.656L1.75-5.484V0H.89zm0 0"/></symbol><symbol overflow="visible" id="c"><path d="M.89-6.563h.876v2.688H5v-2.688h.89V0H5v-3.125H1.766V0H.89zm0 0"/></symbol></defs><g><path fill="#fff" d="M0 0h300v300H0z"/><path d="M35.25 180.398l.762-13.12M38.414 179.266l.606-10.496M46.23 187.613l-10.98-7.215M36.012 167.277l11.738-5.898M47.75 161.38l10.98 7.214M47.152 164.684l8.785 5.773M58.73 168.594l-.757 13.12M58.73 168.594l11.743-5.903M57.973 181.715l-11.743 5.898M55.41 179.54l-9.394 4.722M70.473 162.69l10.98 7.22M81.453 169.91l11.742-5.902M93.195 164.008l10.98 7.22M104.176 171.227l5.87-2.95" stroke-width="1.2" stroke="#000" stroke-miterlimit="10" fill="none"/><path d="M110.047 168.277l5.87-2.953M115.918 165.324l5.488 3.61" stroke-width="1.2" stroke="#f00" stroke-miterlimit="10" fill="none"/><path d="M121.406 168.934l5.492 3.61" stroke-width="1.2" stroke="#000" stroke-miterlimit="10" fill="none"/><path d="M111.918 159.824h8v11h-8zm0 0" fill="#fff"/><use xlink:href="#a" x="111.918" y="168.487" fill="#f00"/><path d="M126.898 172.543l11.743-5.902M138.64 166.64l10.98 7.22M149.62 173.86l11.74-5.903M161.36 167.957l10.984 7.22M172.344 175.176l11.738-5.903M184.082 169.273l5.492 3.61" stroke-width="1.2" stroke="#000" stroke-miterlimit="10" fill="none"/><path d="M189.574 172.883l5.488 3.61M195.063 176.492l5.87-2.95" stroke-width="1.2" stroke="#00f" stroke-miterlimit="10" fill="none"/><path d="M200.934 173.543l5.87-2.953" stroke-width="1.2" stroke="#000" stroke-miterlimit="10" fill="none"/><path d="M188.063 170.992h14v11h-14zm0 0" fill="#fff"/><g fill="#00f"><use xlink:href="#b" x="188.063" y="179.655"/><use xlink:href="#c" x="195.04" y="179.655"/></g><path d="M206.805 170.59l10.98 7.22M217.785 177.81l11.742-5.904M217.785 177.81l-.38 6.557" stroke-width="1.2" stroke="#000" stroke-miterlimit="10" fill="none"/><path d="M217.406 184.367l-.38 6.56" stroke-width="1.2" stroke="#f00" stroke-miterlimit="10" fill="none"/><path d="M229.527 171.906l10.98 7.22M232.324 170.047l8.785 5.773M230.285 158.79l-.758 13.116M240.508 179.125l11.742-5.902M252.25 173.223l.758-13.118M249.238 171.734l.61-10.496M252.25 173.223l10.98 7.218M253.008 160.105l-10.98-7.218M253.008 160.105l5.87-2.953" stroke-width="1.2" stroke="#000" stroke-miterlimit="10" fill="none"/><path d="M258.88 157.152l5.87-2.95" stroke-width="1.2" stroke="#f00" stroke-miterlimit="10" fill="none"/><path d="M242.027 152.887l-11.742 5.902M242.242 156.238l-9.394 4.723" stroke-width="1.2" stroke="#000" stroke-miterlimit="10" fill="none"/><path d="M257.75 148.703h15v11h-15zm0 0" fill="#fff"/><g fill="#f00"><use xlink:href="#a" x="257.75" y="157.366"/><use xlink:href="#c" x="265.092" y="157.366"/></g><path d="M263.23 180.44l-.378 6.56" stroke-width="1.2" stroke="#000" stroke-miterlimit="10" fill="none"/><path d="M262.852 187l-.383 6.56" stroke-width="1.2" stroke="#f00" stroke-miterlimit="10" fill="none"/><path d="M255.47 188.06h15v11h-15zm0 0" fill="#fff"/><g fill="#f00"><use xlink:href="#a" x="255.469" y="196.722"/><use xlink:href="#c" x="262.811" y="196.722"/></g><path d="M210.027 185.426h15v11h-15zm0 0" fill="#fff"/><g fill="#f00"><use xlink:href="#a" x="210.027" y="194.089"/><use xlink:href="#c" x="217.369" y="194.089"/></g><path d="M124.746 127.828l3.856-12.562M128.086 127.48l3.086-10.05M133.695 137.45l-8.95-9.622M128.602 115.266l12.808-2.942M141.41 112.324l8.95 9.62M140.04 115.39l7.163 7.7M150.36 121.945l-3.856 12.563M163.168 119.004l-12.81 2.94M146.504 134.508l-12.81 2.94M144.53 131.79l-10.245 2.35M146.504 134.508l8.953 9.62M155.457 144.13l12.805-2.946M156.043 140.82l10.246-2.355M168.262 141.184l3.855-12.56M172.117 128.625l-8.95-9.62M168.96 129.766l-7.163-7.696M172.117 128.625l12.81-2.945M163.168 119.004l1.926-6.28" stroke-width="1.2" stroke="#000" stroke-miterlimit="10" fill="none"/><path d="M165.094 112.723l1.93-6.282" stroke-width="1.2" stroke="#f00" stroke-miterlimit="10" fill="none"/><path d="M160.023 100.94h15v11h-15zm0 0" fill="#fff"/><g fill="#f00"><use xlink:href="#a" x="160.023" y="109.604"/><use xlink:href="#c" x="167.365" y="109.604"/></g><path d="M186.402 126.137l1.93-6.282" stroke-width="1.2" stroke="#000" stroke-miterlimit="10" fill="none"/><path d="M188.332 119.855l1.926-6.28" stroke-width="1.2" stroke="#f00" stroke-miterlimit="10" fill="none"/><path d="M183.45 125.227l1.925-6.282" stroke-width="1.2" stroke="#000" stroke-miterlimit="10" fill="none"/><path d="M185.375 118.945l1.93-6.28" stroke-width="1.2" stroke="#f00" stroke-miterlimit="10" fill="none"/><path d="M184.926 125.68l4.476 4.812" stroke-width="1.2" stroke="#000" stroke-miterlimit="10" fill="none"/><path d="M189.402 130.492l4.473 4.81" stroke-width="1.2" stroke="#f00" stroke-miterlimit="10" fill="none"/><path d="M184.78 107.62h8v11h-8zm0 0" fill="#fff"/><use xlink:href="#a" x="184.781" y="116.284" fill="#f00"/><path d="M186.875 129.8h15v11h-15zm0 0" fill="#fff"/><g fill="#f00"><use xlink:href="#a" x="186.875" y="138.464"/><use xlink:href="#c" x="194.217" y="138.464"/></g></g></svg>
